tools/download-figma-icons/icons/outlined-large/checklist.svg

<svg width="64" height="64" viewBox="0 0 64 64" fill="none" xmlns="http://www.w3.org/2000/svg">
<path fill-rule="evenodd" clip-rule="evenodd" d="M53.353 60.9902H11V8.00024H20.677V14.5002C20.677 15.3282 21.348 16.0002 22.177 16.0002H22.33H42.177C43.005 16.0002 43.677 15.3282 43.677 14.5002V8.00024H53.353V60.9902ZM27.177 8.00024C28.005 8.00024 28.677 7.32824 28.677 6.50024C28.677 4.57024 30.247 3.00024 32.177 3.00024C34.106 3.00024 35.677 4.57024 35.677 6.50024C35.677 7.32824 36.348 8.00024 37.177 8.00024H40.677V13.0002H23.83V8.00024H27.177ZM54.853 5.00024H42.177H38.502C37.823 2.13624 35.245 0.000244141 32.177 0.000244141C29.109 0.000244141 26.53 2.13624 25.852 5.00024H22.33H22.177H9.5C8.671 5.00024 8 5.67224 8 6.50024V62.4902C8 63.3182 8.671 63.9902 9.5 63.9902H54.853C55.682 63.9902 56.353 63.3182 56.353 62.4902V6.50024C56.353 5.67224 55.682 5.00024 54.853 5.00024ZM32.1377 30.8086C32.1377 31.6366 32.8087 32.3086 33.6377 32.3086H46.8187C47.6467 32.3086 48.3187 31.6366 48.3187 30.8086C48.3187 29.9806 47.6467 29.3086 46.8187 29.3086H33.6377C32.8087 29.3086 32.1377 29.9806 32.1377 30.8086ZM33.7238 45.6289H46.9038C47.7328 45.6289 48.4038 46.3009 48.4038 47.1289C48.4038 47.9569 47.7328 48.6289 46.9038 48.6289H33.7238C32.8948 48.6289 32.2238 47.9569 32.2238 47.1289C32.2238 46.3009 32.8948 45.6289 33.7238 45.6289ZM27.1563 42.2939C26.5703 41.7079 25.6213 41.7079 25.0353 42.2939L22.3213 45.0079L19.6073 42.2939C19.0213 41.7079 18.0723 41.7079 17.4863 42.2939C16.9003 42.8799 16.9003 43.8289 17.4863 44.4149L20.2003 47.1289L17.4863 49.8429C16.9003 50.4289 16.9003 51.3779 17.4863 51.9639C17.7793 52.2569 18.1633 52.4029 18.5473 52.4029C18.9303 52.4029 19.3143 52.2569 19.6073 51.9639L22.3213 49.2499L25.0353 51.9639C25.3283 52.2569 25.7123 52.4029 26.0953 52.4029C26.4793 52.4029 26.8633 52.2569 27.1563 51.9639C27.7423 51.3779 27.7423 50.4289 27.1563 49.8429L24.4423 47.1289L27.1563 44.4149C27.7423 43.8289 27.7423 42.8799 27.1563 42.2939ZM20.9488 31.5975L25.6948 26.8515C26.2808 26.2655 27.2298 26.2655 27.8158 26.8515C28.4018 27.4375 28.4018 28.3865 27.8158 28.9725L22.0088 34.7795C21.7158 35.0725 21.3328 35.2185 20.9488 35.2185C20.5648 35.2185 20.1808 35.0725 19.8878 34.7795L16.4038 31.2945C15.8178 30.7085 15.8178 29.7595 16.4038 29.1735C16.9898 28.5875 17.9388 28.5875 18.5248 29.1735L20.9488 31.5975Z" fill="black"/>
</svg>

<svg xmlns="http://www.w3.org/2000/svg" width="64" height="64" fill="none" viewBox="0 0 64 64"><path fill="currentColor" fill-rule="evenodd" d="M53.353 60.99H11V8h9.677v6.5a1.5 1.5 0 0 0 1.5 1.5h20a1.5 1.5 0 0 0 1.5-1.5V8h9.676zM27.177 8a1.5 1.5 0 0 0 1.5-1.5c0-1.93 1.57-3.5 3.5-3.5s3.5 1.57 3.5 3.5a1.5 1.5 0 0 0 1.5 1.5h3.5v5H23.83V8zm27.676-3H38.502c-.679-2.864-3.257-5-6.325-5a6.51 6.51 0 0 0-6.325 5H9.5A1.5 1.5 0 0 0 8 6.5v55.99a1.5 1.5 0 0 0 1.5 1.5h45.353a1.5 1.5 0 0 0 1.5-1.5V6.5a1.5 1.5 0 0 0-1.5-1.5M32.138 30.81a1.5 1.5 0 0 0 1.5 1.5h13.18a1.5 1.5 0 0 0 0-3h-13.18a1.5 1.5 0 0 0-1.5 1.5m1.586 14.82h13.18a1.5 1.5 0 1 1 0 3h-13.18a1.5 1.5 0 1 1 0-3m-6.568-3.335a1.5 1.5 0 0 0-2.12 0l-2.715 2.714-2.714-2.714a1.5 1.5 0 1 0-2.12 2.12L20.2 47.13l-2.714 2.714a1.5 1.5 0 1 0 2.121 2.12l2.714-2.713 2.714 2.714c.293.293.677.439 1.06.439a1.5 1.5 0 0 0 1.061-2.56l-2.714-2.714 2.714-2.714a1.5 1.5 0 0 0 0-2.121M20.95 31.598l4.746-4.746a1.5 1.5 0 1 1 2.12 2.12L22.01 34.78a1.5 1.5 0 0 1-1.06.44c-.384 0-.768-.147-1.061-.44l-3.484-3.485a1.5 1.5 0 1 1 2.12-2.12z" clip-rule="evenodd"/></svg>
